X:1
T:Immanuel’s Land, 76.76 D
T:Immanuel’s Land, 76.76 D
T:Anthony Johnson Showalter, 1894
T:Public Domain Courtesy of the Cyber Hymnal™
C:Anthony Johnson Showalter, 1894
Z:Public Domain
Z:Courtesy of the Cyber Hymnal™
%%score ( 1 2 ) ( 3 4 )
L:1/8
Q:1/4=113
M:4/4
K:G
V:1 treble 
V:2 treble 
V:3 bass 
V:4 bass 
V:1
 [B,D]2 | [DB]2 [DB]2 [CA]2 [CA]2 | [B,G]2 [B,G]4 [DF]2 | [CE]2 [EG]2 [Ec]2 [Ec]2 | %4
 [DB]6 ([B,G][CA]) | [DB]2 [DB]2 [DB]2 [=Fd]2 | [Ed]2 [Ec]4 [EA]2 | [DG]2 [DF]2 [EB]2 [FA]2 | %8
 G6 [B,D]2 | [CE]2 [DF]2 [EG]2 [EA]2 | [^DB]2 [DB]4 (Bc) | [Dd]2 G2 [FA]2 [GB]2 | [FA]6 (Bc) | %13
 [Gd]2 [Gd]2 [GB]2 [Gd]2 | [Gd]2 [Gc]6 | [GB]2 G2 [EA]2 [DF]2 | [DG]6 |] %17
V:2
 x2 | x8 | x8 | x8 | x8 | x8 | x8 | x8 | G6 x2 | x8 | x6 =D2 | x2 G2 x4 | x6 G2 | x8 | x8 | %15
 x2 G2 x4 | x6 |] %17
V:3
 G,2 | G,2 G,2 [D,F,]2 [D,F,]2 | [E,G,]2 [E,G,]4 [B,,G,]2 | [C,G,]2 [C,G,]2 [C,G,]2 [C,G,]2 | %4
 [G,,G,]6 G,2 | G,2 G,2 G,2 [B,,G,]2 | [C,G,]2 [C,G,]4 [C,C]2 | [D,B,]2 [D,A,]2 [D,D]2 [D,C]2 | %8
 [G,,B,]6 [G,,G,]2 | [C,G,]2 [C,G,]2 [C,G,]2 [C,E,]2 | [B,,F,]2 [B,,F,]4 (G,A,) | %11
 [G,B,]2 [B,,D]2 [D,D]2 [G,D]2 | [D,D]6 (G,A,) | [G,B,]2 [G,B,]2 [G,D]2 [B,,=F]2 | [C,E]2 [C,E]6 | %15
 [D,D]2 [E,B,]2 [C,C]2 [D,A,]2 | [G,,B,]6 |] %17
V:4
 G,2 | G,2 G,2 x4 | x8 | x8 | x6 G,2 | G,2 G,2 G,2 x2 | x8 | x8 | x8 | x8 | x6 G,2 | x8 | x6 G,2 | %13
 x8 | x8 | E,2 x6 | x6 |] %17

